packages/ffe-icons/icons/open/400/sm/assistant_on_hub.svg

<svg xmlns="http://www.w3.org/2000/svg" height="20" viewBox="0 -960 960 960" width="20"><path d="M419.79-492q15.21 0 25.71-10.29t10.5-25.5q0-15.21-10.29-25.71t-25.5-10.5q-15.21 0-25.71 10.29t-10.5 25.5q0 15.21 10.29 25.71t25.5 10.5Zm-120 0q15.21 0 25.71-10.29t10.5-25.5q0-15.21-10.29-25.71t-25.5-10.5q-15.21 0-25.71 10.29t-10.5 25.5q0 15.21 10.29 25.71t25.5 10.5Zm240 0q15.21 0 25.71-10.29t10.5-25.5q0-15.21-10.29-25.71t-25.5-10.5q-15.21 0-25.71 10.29t-10.5 25.5q0 15.21 10.29 25.71t25.5 10.5Zm120 0q15.21 0 25.71-10.29t10.5-25.5q0-15.21-10.29-25.71t-25.5-10.5q-15.21 0-25.71 10.29t-10.5 25.5q0 15.21 10.29 25.71t25.5 10.5ZM168-360h624v-336H168v336Zm312.5 168Q378-192 309-204.5T240-240v-48h-72.21Q138-288 117-309.15T96-360v-336q0-29.7 21.15-50.85Q138.3-768 168-768h624q29.7 0 50.85 21.15Q864-725.7 864-696v336q0 29.7-21.15 50.85Q821.7-288 792-288h-72v48q0 23-68.5 35.5t-171 12.5Zm-.5-336Z"/></svg>

<svg xmlns="http://www.w3.org/2000/svg" height="20" viewBox="0 -960 960 960" width="20"><path d="M419.789-492Q435-492 445.5-502.289q10.5-10.29 10.5-25.5Q456-543 445.711-553.5q-10.29-10.5-25.5-10.5Q405-564 394.5-553.711q-10.5 10.29-10.5 25.5Q384-513 394.289-502.5q10.29 10.5 25.5 10.5Zm-120 0Q315-492 325.5-502.289q10.5-10.29 10.5-25.5Q336-543 325.711-553.5q-10.29-10.5-25.5-10.5Q285-564 274.5-553.711q-10.5 10.29-10.5 25.5Q264-513 274.289-502.5q10.29 10.5 25.5 10.5Zm240 0Q555-492 565.5-502.289q10.5-10.29 10.5-25.5Q576-543 565.711-553.5q-10.29-10.5-25.5-10.5Q525-564 514.5-553.711q-10.5 10.29-10.5 25.5Q504-513 514.289-502.5q10.29 10.5 25.5 10.5Zm120 0Q675-492 685.5-502.289q10.5-10.29 10.5-25.5Q696-543 685.711-553.5q-10.29-10.5-25.5-10.5Q645-564 634.5-553.711q-10.5 10.29-10.5 25.5Q624-513 634.289-502.5q10.29 10.5 25.5 10.5ZM168-360h624v-336H168v336Zm312.5 168Q378-192 309-204.5T240-240v-48h-72.212Q138-288 117-309.15 96-330.3 96-360v-336q0-29.7 21.15-50.85Q138.3-768 168-768h624q29.7 0 50.85 21.15Q864-725.7 864-696v336q0 29.7-21.15 50.85Q821.7-288 792-288h-72v48q0 23-68.5 35.5t-171 12.5Zm-.5-336Z"/></svg>
